static/images/mobile/copyright/wikipedia-wordmark-ku.svg

<?xml version="1.0" encoding="UTF-8"?>
<svg width="120px" height="18px" viewBox="0 0 120 18" version="1.1" xmlns="http://www.w3.org/2000/svg" xmlns:xlink="http://www.w3.org/1999/xlink">
    <title>ku-wordmark</title>
    <g id="Page-1" stroke="none" stroke-width="1" fill="none" fill-rule="evenodd">
        <path d="M27.5923634,0.265716155 C27.7541905,0.427543287 27.7541905,0.993938248 27.5923634,1.15576538 C25.8122669,1.37153489 25.4886097,2.42341125 24.9222157,3.66408592 L18.5570152,17.4193921 C18.3682169,17.82396 18.2063897,18.0397295 17.9097066,18.0397295 C17.6399948,18.0397295 17.4242252,17.82396 17.2893693,17.4193921 L13.6482588,9.59774742 L9.68349411,17.4193921 C9.52166698,17.82396 9.33286866,18.0397295 9.03618558,18.0397295 C8.7664737,18.0397295 8.57767538,17.82396 8.41584824,17.4193921 L2.53613012,3.61014355 C1.72699506,1.69518915 1.67305069,1.29062132 0.135694931,1.15576538 C-0.026132201,0.993938248 -0.0531033896,0.427543287 0.108723742,0.265716155 C1.37636761,0.292687343 1.83488081,0.319658532 2.91372676,0.319658532 C3.96560212,0.319658532 4.63988383,0.292687343 5.9075287,0.265716155 C6.06935483,0.427543287 6.06935483,0.993938248 5.9075287,1.15576538 C4.20834481,1.3445637 4.12743025,1.77610272 4.80170997,3.31346047 L9.73743649,14.5604461 L9.87229243,14.5604461 L12.8660944,8.43798631 L10.6005145,3.61014355 C9.7104663,1.69518915 9.49469479,1.31759251 8.33493468,1.15576538 C8.17310855,0.993938248 8.14613736,0.427543287 8.30796349,0.265716155 C9.17104053,0.292687343 9.62955273,0.319658532 10.7083993,0.319658532 C11.7602746,0.319658532 12.1918157,0.292687343 13.1627774,0.265716155 C13.3246046,0.427543287 13.3246046,0.993938248 13.1627774,1.15576538 C12.0299885,1.31759251 12.1378733,1.77610272 12.8660944,3.31346047 L14.1876826,6.03755052 L14.3225386,6.17240647 L15.7520116,3.4752876 C16.5611462,1.91095866 16.6960022,1.31759251 15.536242,1.15576538 C15.3744149,0.993938248 15.3744149,0.427543287 15.536242,0.265716155 C16.534175,0.292687343 17.0466296,0.319658532 17.6669659,0.319658532 C18.2873023,0.319658532 18.961584,0.292687343 19.6358627,0.265716155 C19.7976898,0.427543287 19.7976898,0.993938248 19.6358627,1.15576538 C18.2333619,1.37153489 17.6399938,2.42341125 16.965715,3.66408592 L14.9968183,7.44005233 L18.4491304,14.5604461 L18.5839864,14.5604461 L23.7085122,3.4752876 C24.3288485,2.01884342 24.3018764,1.29062132 22.5487511,1.15576538 C22.386924,0.993938248 22.386924,0.427543287 22.5487511,0.265716155 C23.816396,0.292687343 24.5985624,0.319658532 25.2188988,0.319658532 C25.8392351,0.319658532 26.5135168,0.292687343 27.5923634,0.265716155 Z M26.3564786,5.28635297 C26.3564786,5.28635297 28.4872035,5.34029535 29.3233093,5.34029535 C30.0515314,5.34029535 32.1283129,5.28635297 32.1283129,5.28635297 L32.1552841,5.34029535 L32.1552841,5.90669031 C32.1552841,5.98760388 32.1013418,6.04154625 31.993457,6.04154625 L31.427062,6.09548863 C30.5909562,6.1764022 30.2942721,6.4191429 30.2942721,6.95856667 L30.2942721,15.9399725 C30.2942721,16.5333386 30.563985,16.8839641 31.427062,16.9648777 L31.993457,17.01882 C32.0743706,17.01882 32.1552841,17.0727624 32.1552841,17.1806472 L32.1552841,17.7470421 L32.1283129,17.8009845 C32.1283129,17.8009845 30.0785016,17.7470421 29.2423958,17.7470421 L29.1313804,17.7473663 C28.3002997,17.7518345 26.3834498,17.8009845 26.3834498,17.8009845 L26.3295074,17.7470421 L26.3295074,17.1806472 C26.3295074,17.0727624 26.4104209,17.01882 26.5183057,17.01882 L27.0577295,16.9648777 C27.9477777,16.8839641 28.2174906,16.4524251 28.2174906,15.9399725 L28.2174906,6.95856667 C28.2174906,6.36520052 27.8938353,6.1764022 27.0577295,6.09548863 L26.5183057,6.04154625 C26.4104209,6.04154625 26.3295074,6.01457507 26.3295074,5.9336615 L26.3295074,5.34029535 Z M29.9436467,0.18879832 C30.7258111,1.45644419 31.6967749,2.58923411 32.6677367,3.66808165 L32.1013418,4.0456783 C31.0494664,3.26351383 30.1594152,2.58923411 29.2423958,1.61827132 C28.2444628,2.64317649 27.3813827,3.3174562 26.3564786,4.0456783 L25.8170548,3.66808165 C26.7880166,2.58923411 27.8129238,1.429473 28.5950872,0.18879832 Z M32.990408,5.28635297 C32.990408,5.28635297 35.2020465,5.34029535 36.0381523,5.34029535 C36.7933446,5.34029535 38.4925305,5.28635297 38.4925305,5.28635297 L38.5195017,5.34029535 L38.5195017,5.9336615 C38.5195017,6.01457507 38.4655593,6.04154625 38.3576746,6.06851744 L38.0609915,6.12245982 C37.2248856,6.28428695 36.9282016,6.4191429 36.9282016,6.95856667 L36.9282016,11.0312162 C37.8182498,11.0312162 38.3307044,10.5727059 39.5174357,9.30506008 C40.5962822,8.11832778 41.4323901,7.1203938 41.4323901,6.60794122 C41.4323901,6.39217171 41.1896484,6.14943101 40.6502256,6.06851744 C40.5423408,6.04154625 40.4883985,6.01457507 40.4883985,5.9336615 L40.4883985,5.31332416 L40.5153697,5.28635297 C40.5153697,5.28635297 42.7000369,5.34029535 43.4822004,5.34029535 C44.1834503,5.34029535 45.3701836,5.28635297 45.3701836,5.28635297 L45.4510972,5.31332416 L45.4510972,5.9336615 C45.4510972,6.01457507 45.3701836,6.06851744 45.2353277,6.06851744 C44.1834523,6.14943101 43.4552282,6.20337339 42.4842664,7.30919212 L40.1647442,9.9793398 C39.706234,10.4648212 39.5444069,10.7615043 39.5444069,10.9772738 C39.5444069,11.1391009 39.6522916,11.2739569 39.7871476,11.435784 L43.859797,16.3445403 C44.1834513,16.722137 44.8307598,16.8839641 45.3701836,16.9918488 L45.5050396,17.01882 C45.5859531,17.0457912 45.6938379,17.0997336 45.6938379,17.1806472 L45.6938379,17.7470421 L45.6129243,17.7740133 C45.6129243,17.7740133 44.4834634,17.7527027 43.7020764,17.7479671 L43.2898221,17.7473858 C42.6288329,17.7505184 41.7830155,17.7740133 41.7830155,17.7740133 L41.7560443,17.7470421 L41.7560443,17.4233879 C41.7560443,17.0727624 41.7290721,16.7760793 41.3514765,16.3445403 L38.3576746,12.6225163 C37.9531067,12.0830925 37.5215667,11.9482366 36.9282016,11.9482366 L36.9282016,15.9399725 C36.9282016,16.5333386 37.278828,16.8300217 38.0609915,16.9648777 L38.3576746,17.01882 C38.4385881,17.0457912 38.5195017,17.0727624 38.5195017,17.1806472 L38.5195017,17.7470421 L38.4925305,17.8009845 C38.4925305,17.8009845 37.8808236,17.7815652 37.216685,17.7660298 L36.8828356,17.7586937 C36.5497954,17.7518969 36.2269504,17.7470421 35.98421,17.7470421 L35.8777485,17.7473392 C35.0408821,17.7516308 33.0173792,17.8009845 33.0173792,17.8009845 L32.9634368,17.7470421 L32.9634368,17.1806472 C32.9634368,17.0727624 33.0443504,17.01882 33.1522352,17.01882 L33.6916589,16.9648777 C34.5007936,16.8839641 34.85142,16.4524251 34.85142,15.9399725 L34.85142,6.95856667 C34.85142,6.36520052 34.554736,6.20337339 33.6916589,6.12245982 L33.1522352,6.06851744 C33.0443504,6.06851744 32.9634368,6.04154625 32.9634368,5.96063269 L32.9634368,5.34029535 Z M46.2091005,5.28635297 C46.2091005,5.28635297 48.3398254,5.34029535 49.1759312,5.34029535 C49.9041523,5.34029535 51.9809348,5.28635297 51.9809348,5.28635297 L52.007906,5.34029535 L52.007906,5.90669031 C52.007906,5.98760388 51.9539636,6.04154625 51.8460789,6.04154625 L51.2796839,6.09548863 C50.4435781,6.1764022 50.146894,6.4191429 50.146894,6.95856667 L50.146894,15.9399725 C50.146894,16.5333386 50.4166069,16.8839641 51.2796839,16.9648777 L51.8460789,17.01882 C51.9269924,17.01882 52.007906,17.0727624 52.007906,17.1806472 L52.007906,17.7470421 L51.9809348,17.8009845 C51.9809348,17.8009845 49.9311235,17.7470421 49.0950176,17.7470421 L48.9840022,17.7473663 C48.1529216,17.7518345 46.2360716,17.8009845 46.2360716,17.8009845 L46.1821293,17.7470421 L46.1821293,17.1806472 C46.1821293,17.0727624 46.2630428,17.01882 46.3709276,17.01882 L46.9103514,16.9648777 C47.8003996,16.8839641 48.0701125,16.4524251 48.0701125,15.9399725 L48.0701125,6.95856667 C48.0701125,6.36520052 47.7464572,6.1764022 46.9103514,6.09548863 L46.3709276,6.04154625 C46.2630428,6.04154625 46.1821293,6.01457507 46.1821293,5.9336615 L46.1821293,5.34029535 Z M49.7962685,0.18879832 C50.578432,1.45644419 51.5493968,2.58923411 52.5203586,3.66808165 L51.9539636,4.0456783 C50.9020883,3.26351383 50.0120371,2.58923411 49.0950176,1.61827132 C48.0970847,2.64317649 47.2340046,3.3174562 46.2091005,4.0456783 L45.6696767,3.66808165 C46.6406385,2.58923411 47.6655456,1.429473 48.4477091,0.18879832 Z M58.5069775,5.28635297 C62.3368823,5.28635297 63.0381372,7.17433618 63.0381372,8.57683799 C63.0381372,10.1951093 62.2559688,12.730401 58.426064,12.730401 C57.7517852,12.730401 57.2123605,12.6764587 56.7268791,12.4606892 L56.7268791,16.0748284 C56.7268791,16.6681946 57.0505343,16.8030505 57.9136114,16.9379065 L58.4530352,17.01882 C58.5609199,17.0457912 58.6418335,17.0727624 58.6418335,17.1806472 L58.6418335,17.7470421 L58.6148623,17.8009845 C58.6148623,17.8009845 56.4571662,17.7470421 55.6210603,17.7470421 L55.5105313,17.7473663 C54.6861529,17.7518345 52.8430279,17.8009845 52.8430279,17.8009845 L52.8160567,17.7470421 L52.8160567,17.1806472 C52.8160567,17.0727624 52.8699991,17.0457912 52.9778839,17.01882 L53.5442788,16.9379065 C54.3803847,16.8300217 54.6500976,16.587281 54.6500976,16.0748284 L54.6500976,7.01250905 C54.6500976,6.1764022 54.2994711,6.14943101 53.0318262,6.06851744 C52.8699991,6.06851744 52.8430279,5.98760388 52.8430279,5.9336615 L52.8430279,5.31332416 L52.8969703,5.28635297 C53.3015381,5.28635297 54.8928393,5.34029535 55.6750027,5.34029535 C56.430196,5.34029535 57.5090445,5.28635297 58.5069775,5.28635297 Z M62.5923245,5.28635297 C62.5923245,5.28635297 64.6960782,5.34029535 65.5052128,5.34029535 L69.4699776,5.34029535 C70.2791122,5.34029535 72.1940676,5.28635297 72.1940676,5.28635297 L72.24801,5.34029535 C72.2749812,6.50005646 72.4637795,7.55193282 72.6525778,8.57683799 L71.9782981,8.68472274 C71.681616,7.68678876 71.1691604,6.25731576 69.4430064,6.25731576 L67.2853113,6.25731576 C66.7728597,6.25731576 66.5031468,6.44611408 66.5031468,6.90462429 L66.5031468,10.8154466 L68.525986,10.8154466 C69.2811782,10.8154466 69.4699776,10.4917924 69.5778623,9.95236861 L69.7396894,9.38597365 C69.7396894,9.30506008 69.7936318,9.2511177 69.9015166,9.2511177 L70.3600268,9.2511177 C70.4139692,9.2511177 70.4139692,9.27808889 70.4139692,9.33203127 C70.3600268,9.92539742 70.252142,10.6805907 70.252142,11.3278992 C70.252142,12.0021789 70.3600268,12.5685739 70.4139692,13.1889112 L70.3600268,13.2428536 L69.9015166,13.2428536 C69.7666606,13.2428536 69.7127183,13.1889112 69.7127183,13.1079977 L69.5778623,12.5146315 C69.4699776,11.9752078 69.2272369,11.6785247 68.525986,11.6785247 L66.5031468,11.6785247 L66.5031468,15.8051165 C66.5031468,16.3175691 66.7998309,16.8300217 67.2853113,16.8300217 L69.8475742,16.8300217 C71.2231038,16.8300217 71.9782991,15.9669437 72.3019524,14.5644419 L72.9762321,14.6453554 L72.4368083,17.7470421 L72.3828659,17.8009845 C72.3828659,17.8009845 70.7915648,17.7470421 69.9824301,17.7470421 L65.1400404,17.7473974 C64.2803181,17.7520572 62.5923245,17.8009845 62.5923245,17.8009845 L62.5653533,17.7470421 L62.5653533,17.153676 C62.5653533,17.0997336 62.5923245,17.01882 62.7271804,17.01882 L63.3475177,16.9648777 C64.1836236,16.8839641 64.4263653,16.3445403 64.4263653,15.8051165 L64.4263653,6.90462429 C64.4263653,6.28428695 64.10271,6.1764022 63.3475177,6.12245982 L62.7271804,6.06851744 C62.5653533,6.04154625 62.5653533,5.98760388 62.5653533,5.96063269 L62.5653533,5.34029535 Z M58.3451504,6.06851744 C57.0505353,6.06851744 56.7268791,6.31125814 56.7268791,7.01250905 L56.7268791,11.7054959 C57.2663029,11.9212654 57.9405836,11.9482366 58.4800063,11.9482366 C60.0982767,11.9482366 60.8804421,10.9772738 60.8804421,8.90049225 C60.8804421,6.58097003 59.8285648,6.06851744 58.3451504,6.06851744 Z M76.7735497,5.34029535 C77.2860013,5.34029535 79.6324957,5.28635297 80.3337466,5.28635297 C84.8379301,5.28635297 87.0495725,8.09135659 87.0495725,11.6785247 C87.0495725,16.3984827 83.7051422,17.8009845 80.7113432,17.8009845 C78.6615348,17.8009845 77.7070892,17.7523015 76.8999129,17.7474332 L76.655832,17.7473663 C75.7823037,17.7518345 73.9146037,17.8009845 73.9146037,17.8009845 L73.8876325,17.7470421 L73.8876325,17.1806472 C73.8876325,17.0997336 73.9415749,17.01882 74.0494596,17.01882 L74.669797,16.9648777 C75.4789316,16.8839641 75.7486445,16.6412234 75.7486445,15.8051165 L75.7486445,6.90462429 C75.7486445,6.20337339 75.5598452,6.20337339 74.669797,6.12245982 L74.0764308,6.06851744 C73.9685461,6.06851744 73.8876325,6.01457507 73.8876325,5.9336615 L73.8876325,5.34029535 L73.9146037,5.28635297 C73.9146037,5.28635297 76.2880683,5.34029535 76.7735497,5.34029535 Z M89.6024715,5.34029535 C89.8672795,5.34029535 90.3104094,5.33316247 90.7671567,5.32408427 L91.1096969,5.31699192 C91.2947543,5.31302073 91.4752178,5.30894145 91.6398783,5.30510713 L91.6582255,5.28635297 C91.7195494,5.28635297 91.8721062,5.28979572 92.070669,5.29494173 C92.2786822,5.28969824 92.4074751,5.28635297 92.4074751,5.28635297 L92.4153612,5.30421599 C92.9856606,5.31992139 93.6875298,5.34029535 93.8698629,5.34029535 C93.9834258,5.34029535 95.607973,5.32116897 96.3114338,5.29902263 L96.5273056,5.29060765 L96.593953,5.28635297 L96.6209242,5.31332416 L96.6209242,5.9336615 C96.6209242,5.98760388 96.5669818,6.06851744 96.4860682,6.06851744 L95.8927021,6.12245982 C95.2454035,6.1764022 95.3532883,6.4191429 95.6230002,6.85068191 L98.3470902,11.300928 L98.4010326,11.300928 L100.909353,6.85068191 C101.259979,6.20337339 101.259979,6.1764022 100.61267,6.12245982 L99.9923327,6.06851744 C99.9114192,6.06851744 99.884448,5.98760388 99.884448,5.9336615 L99.884448,5.31332416 L99.9383904,5.28635297 C100.235073,5.28635297 101.74546,5.34029535 102.015172,5.34029535 C102.20397,5.34029535 103.444645,5.31332416 103.849213,5.28635297 L103.876184,5.34029535 L103.876184,5.9336615 C103.876184,5.98760388 103.876184,6.04154625 103.687386,6.06851744 L103.228875,6.12245982 C102.365797,6.23034458 102.230941,6.39217171 101.826374,7.1203938 L98.8595428,12.3528044 L98.8595428,16.1017996 C98.8595428,16.6951658 99.1562259,16.8839641 99.9923327,16.9648777 L100.558728,17.01882 C100.666602,17.01882 100.747516,17.0997336 100.747516,17.1806472 L100.747516,17.7470421 L100.693574,17.8009845 C100.693574,17.8009845 98.8258837,17.7518345 97.9288887,17.7473663 L97.696641,17.7473663 C96.8655604,17.7518345 94.9487205,17.8009845 94.9487205,17.8009845 L94.8947781,17.7470421 L94.8947781,17.1806472 C94.8947781,17.0997336 94.9756817,17.01882 95.0835664,17.01882 L95.6230002,16.9648777 C96.459107,16.8839641 96.7827613,16.6412234 96.7827613,16.1017996 L96.7827513,12.4606892 L93.3843815,6.8776531 C93.0651949,6.36204391 92.6789544,6.18170409 92.0221883,6.09246768 L91.7062242,6.12245982 C90.8701273,6.20337339 90.5734343,6.4191429 90.5734343,6.95856667 L90.5734343,15.9399725 C90.5734343,16.5333386 90.8431561,16.8839641 91.7062242,16.9648777 L92.2726191,17.01882 C92.3535327,17.01882 92.4344463,17.0727624 92.4344463,17.1806472 L92.4344463,17.7470421 L92.4074751,17.8009845 C92.4074751,17.8009845 90.539776,17.7518345 89.6427889,17.7473663 L89.4105425,17.7473663 C88.5794619,17.7518345 86.6626119,17.8009845 86.6626119,17.8009845 L86.6086695,17.7470421 L86.6086695,17.1806472 C86.6086695,17.0727624 86.6895831,17.01882 86.7974679,17.01882 L87.3368916,16.9648777 C88.2269399,16.8839641 88.4966527,16.4524251 88.4966527,15.9399725 L88.4966527,6.95856667 C88.4966527,6.36520052 88.1729975,6.20337339 87.3368916,6.12245982 L86.7974679,6.06851744 C86.6895831,6.06851744 86.6086695,6.04154625 86.6086695,5.96063269 L86.6086695,5.34029535 L86.6356407,5.28635297 C86.6356407,5.28635297 88.7663656,5.34029535 89.6024715,5.34029535 Z M111.180421,2.66453526e-14 C111.558018,2.66453526e-14 111.692874,0.269711886 111.908643,0.809135659 L117.437737,15.4275199 C117.815334,16.4793963 118.354748,16.8839641 119.433605,16.9918488 L119.730288,17.01882 C119.865144,17.01882 120,17.0997336 120,17.2345895 L120,17.7470421 L119.919086,17.8009845 C119.919086,17.8009845 118.018969,17.7516308 116.933187,17.7473392 L116.669271,17.7472941 C115.72505,17.7509398 113.599489,17.7930166 113.251786,17.800004 L113.20326,17.8009845 L113.176289,17.7470421 L113.176289,17.2345895 C113.176289,17.0997336 113.230232,17.01882 113.365088,17.01882 L114.120281,16.9648777 C115.145186,16.8839641 115.522783,16.5603098 115.253071,15.8051165 L113.607828,11.2469857 L107.997821,11.2469857 C107.350513,11.2469857 107.188685,11.3548704 107.053829,11.7054959 L105.489501,15.6163182 C105.219789,16.2905979 105.570414,16.8839641 106.568348,16.9648777 L107.350513,17.01882 C107.458397,17.01882 107.566282,17.0997336 107.566282,17.2345895 L107.566282,17.7470421 L107.51234,17.8009845 L107.458573,17.800004 C107.266342,17.7965103 106.585993,17.7842442 105.863244,17.7723959 L105.467492,17.7660298 C104.875593,17.7567086 104.309561,17.7487855 104.013518,17.7472941 L103.806332,17.7474747 C103.047002,17.7525708 101.497765,17.8009845 101.497765,17.8009845 L101.443822,17.7470421 L101.443822,17.2345895 C101.443822,17.0997336 101.524736,17.01882 101.659592,17.01882 C102.846324,16.9379065 103.520604,16.722137 104.275797,14.9959809 L110.263401,0.970962791 C110.560084,0.269711886 110.775853,2.66453526e-14 111.180421,2.66453526e-14 Z M79.5515821,6.06851744 C78.4997067,6.06851744 77.825426,6.23034458 77.825426,6.90462429 L77.825426,15.8051165 C77.825426,16.5603098 78.0142264,17.01882 80.0640347,17.01882 C83.0308624,17.01882 84.7030791,15.9130013 84.7030791,12.1370349 C84.7030791,9.33203127 84.0827368,6.06851744 79.5515821,6.06851744 Z M110.560084,2.91288837 L110.506142,2.91288837 L107.809023,9.76357029 C107.701138,10.0332822 107.889936,10.1141957 108.483302,10.1141957 L113.176289,10.1141957 L110.560084,2.91288837 Z" id="ku-wordmark" fill="#000000" fill-rule="nonzero"></path>
    </g>
</svg>

<svg xmlns="http://www.w3.org/2000/svg" width="120" height="18"><path fill="#000" fill-rule="nonzero" d="M27.592.266c.162.162.162.728 0 .89-1.78.216-2.103 1.267-2.67 2.508L18.557 17.42c-.189.405-.35.62-.647.62-.27 0-.486-.215-.62-.62l-3.642-7.821-3.965 7.821c-.161.405-.35.62-.647.62-.27 0-.458-.215-.62-.62L2.536 3.61c-.809-1.915-.863-2.32-2.4-2.454C-.026.994-.054.428.109.266 1.376.293 1.835.32 2.914.32 3.966.32 4.64.293 5.908.266c.161.162.161.728 0 .89-1.7.189-1.78.62-1.106 2.157L9.737 14.56h.135l2.994-6.122-2.265-4.828c-.89-1.915-1.106-2.292-2.266-2.454-.162-.162-.189-.728-.027-.89.863.027 1.322.054 2.4.054 1.052 0 1.484-.027 2.455-.054.162.162.162.728 0 .89-1.133.162-1.025.62-.297 2.157l1.322 2.725.135.134 1.429-2.697c.81-1.564.944-2.157-.216-2.32-.162-.161-.162-.727 0-.89.998.028 1.51.055 2.131.055.62 0 1.295-.027 1.969-.054.162.162.162.728 0 .89-1.403.216-1.996 1.267-2.67 2.508l-1.97 3.776 3.453 7.12h.135l5.125-11.085c.62-1.456.593-2.184-1.16-2.32-.162-.161-.162-.727 0-.89 1.267.028 2.05.055 2.67.055.62 0 1.295-.027 2.373-.054Zm-1.236 5.02s2.131.054 2.967.054c.729 0 2.805-.054 2.805-.054l.027.054v.567c0 .08-.054.135-.162.135l-.566.053c-.836.081-1.133.324-1.133.864v8.981c0 .593.27.944 1.133 1.025l.566.054c.081 0 .162.054.162.162v.566l-.027.054s-2.05-.054-2.886-.054h-.11c-.832.005-2.749.054-2.749.054l-.053-.054v-.566c0-.108.08-.162.188-.162l.54-.054c.89-.081 1.16-.513 1.16-1.025V6.959c0-.594-.324-.783-1.16-.864l-.54-.053c-.108 0-.188-.027-.188-.108V5.34ZM29.944.19c.782 1.267 1.753 2.4 2.724 3.48l-.567.377c-1.052-.782-1.942-1.457-2.859-2.428-.998 1.025-1.86 1.7-2.886 2.428l-.539-.378c.971-1.079 1.996-2.239 2.778-3.48Zm3.046 5.097s2.212.054 3.048.054c.755 0 2.455-.054 2.455-.054l.027.054v.594c0 .08-.054.108-.162.135l-.297.053c-.836.162-1.133.297-1.133.837v4.072c.89 0 1.403-.458 2.59-1.726 1.078-1.187 1.914-2.185 1.914-2.697 0-.216-.242-.459-.782-.54-.108-.026-.162-.053-.162-.134v-.62l.027-.028s2.185.054 2.967.054c.701 0 1.888-.054 1.888-.054l.081.027v.62c0 .082-.08.136-.216.136-1.052.08-1.78.134-2.75 1.24l-2.32 2.67c-.459.486-.62.783-.62.998 0 .162.107.297.242.459l4.073 4.909c.323.377.97.539 1.51.647l.135.027c.081.027.189.08.189.162v.566l-.081.027s-1.13-.021-1.91-.026h-.413c-.661.003-1.507.026-1.507.026l-.027-.027v-.324c0-.35-.027-.647-.405-1.078l-2.993-3.722c-.405-.54-.836-.675-1.43-.675v3.992c0 .593.35.89 1.133 1.025l.297.054c.08.027.162.054.162.162v.566l-.027.054s-.612-.02-1.276-.035l-.334-.007a47.586 47.586 0 0 0-.899-.012h-.106c-.837.005-2.86.054-2.86.054l-.055-.054v-.566c0-.108.081-.162.19-.162l.539-.054c.809-.081 1.16-.513 1.16-1.025V6.959c0-.594-.297-.756-1.16-.837l-.54-.053c-.108 0-.189-.027-.189-.108v-.62Zm13.22 0s2.13.054 2.966.054c.728 0 2.805-.054 2.805-.054l.027.054v.567c0 .08-.054.135-.162.135l-.566.053c-.836.081-1.133.324-1.133.864v8.981c0 .593.27.944 1.133 1.025l.566.054c.081 0 .162.054.162.162v.566l-.027.054s-2.05-.054-2.886-.054h-.111c-.831.005-2.748.054-2.748.054l-.054-.054v-.566c0-.108.081-.162.189-.162l.54-.054c.89-.081 1.16-.513 1.16-1.025V6.959c0-.594-.325-.783-1.16-.864l-.54-.053c-.108 0-.189-.027-.189-.108V5.34ZM49.795.19c.782 1.267 1.753 2.4 2.724 3.48l-.566.377c-1.052-.782-1.942-1.457-2.859-2.428-.998 1.025-1.861 1.7-2.886 2.428l-.54-.378c.972-1.079 1.997-2.239 2.779-3.48Zm8.711 5.097c3.83 0 4.531 1.888 4.531 3.29 0 1.62-.782 4.154-4.612 4.154-.674 0-1.214-.054-1.7-.27v3.615c0 .593.325.728 1.188.863l.539.08c.108.028.189.055.189.163v.566l-.027.054s-2.158-.054-2.994-.054h-.11c-.825.005-2.668.054-2.668.054l-.027-.054v-.566c0-.108.054-.135.162-.162l.566-.081c.836-.108 1.106-.35 1.106-.863V7.013c0-.837-.35-.864-1.618-.944-.162 0-.189-.081-.189-.135v-.62l.054-.028c.405 0 1.996.054 2.778.054.755 0 1.834-.054 2.832-.054Zm4.085 0s2.104.054 2.913.054h3.965c.81 0 2.724-.054 2.724-.054l.054.054c.027 1.16.216 2.212.405 3.237l-.675.108c-.296-.998-.809-2.428-2.535-2.428h-2.158c-.512 0-.782.19-.782.648v3.91h2.023c.755 0 .944-.323 1.052-.863l.162-.566c0-.08.054-.135.162-.135h.458c.054 0 .054.027.054.081-.054.593-.162 1.349-.162 1.996 0 .674.108 1.24.162 1.86l-.054.055h-.458c-.135 0-.19-.054-.19-.135l-.134-.593c-.108-.54-.35-.836-1.052-.836h-2.023v4.126c0 .513.297 1.025.782 1.025h2.563c1.375 0 2.13-.863 2.454-2.266l.674.081-.54 3.102-.053.054s-1.591-.054-2.4-.054H65.14c-.86.005-2.548.054-2.548.054l-.027-.054v-.593c0-.054.027-.135.162-.135l.62-.054c.837-.081 1.08-.62 1.08-1.16v-8.9c0-.62-.324-.729-1.08-.783l-.62-.053c-.162-.027-.162-.081-.162-.108v-.62Zm-4.247.783c-1.294 0-1.618.242-1.618.944v4.692c.54.216 1.214.243 1.753.243 1.618 0 2.4-.97 2.4-3.048 0-2.319-1.051-2.831-2.535-2.831Zm18.429-.729c.512 0 2.858-.054 3.56-.054 4.504 0 6.716 2.805 6.716 6.393 0 4.72-3.345 6.122-6.339 6.122-2.05 0-3.004-.049-3.811-.054h-.244c-.874.005-2.741.054-2.741.054l-.027-.054v-.566c0-.081.054-.162.161-.162l.62-.054c.81-.081 1.08-.324 1.08-1.16v-8.9c0-.702-.19-.702-1.08-.783l-.593-.053c-.107 0-.188-.054-.188-.135V5.34l.027-.054s2.373.054 2.859.054Zm12.828 0c.265 0 .708-.007 1.165-.016l.343-.007.53-.012.018-.019c.062 0 .214.004.413.009l.336-.009.008.018c.57.016 1.273.036 1.455.036.113 0 1.738-.019 2.441-.041l.216-.008.067-.005.027.027v.62c0 .055-.054.136-.135.136l-.593.053c-.648.054-.54.297-.27.729l2.724 4.45h.054l2.508-4.45c.351-.648.351-.675-.296-.729l-.62-.053c-.082 0-.109-.081-.109-.135v-.62l.054-.028c.297 0 1.807.054 2.077.054.189 0 1.43-.027 1.834-.054l.027.054v.594c0 .054 0 .108-.189.135l-.458.053c-.863.108-.998.27-1.403.998l-2.966 5.233v3.749c0 .593.296.782 1.132.863l.567.054c.108 0 .189.08.189.162v.566l-.054.054s-1.868-.05-2.765-.054h-.232c-.831.005-2.748.054-2.748.054l-.054-.054v-.566c0-.081.08-.162.189-.162l.539-.054c.836-.081 1.16-.324 1.16-.863V12.46l-3.399-5.583c-.319-.516-.705-.696-1.362-.786l-.316.03c-.836.081-1.133.297-1.133.837v8.981c0 .593.27.944 1.133 1.025l.567.054c.08 0 .161.054.161.162v.566l-.027.054s-1.867-.05-2.764-.054h-.232c-.832.005-2.748.054-2.748.054l-.054-.054v-.566c0-.108.08-.162.188-.162l.54-.054c.89-.081 1.16-.513 1.16-1.025V6.959c0-.594-.324-.756-1.16-.837l-.54-.053c-.107 0-.188-.027-.188-.108v-.62l.027-.055s2.13.054 2.966.054ZM111.18 0c.378 0 .513.27.729.81l5.529 14.618c.377 1.051.917 1.456 1.996 1.564l.296.027c.135 0 .27.08.27.216v.512l-.08.054s-1.901-.05-2.987-.054h-.264c-.944.004-3.07.046-3.417.053l-.049.001-.027-.054v-.512c0-.135.054-.216.19-.216l.754-.054c1.025-.081 1.403-.405 1.133-1.16l-1.645-4.558h-5.61c-.647 0-.81.108-.944.458l-1.564 3.911c-.27.675.08 1.268 1.078 1.349l.783.054c.107 0 .215.08.215.216v.512l-.054.054-.053-.001-1.596-.028-.396-.006c-.591-.01-1.157-.017-1.453-.019h-.208c-.759.006-2.308.054-2.308.054l-.054-.054v-.512c0-.135.08-.216.216-.216 1.186-.081 1.86-.297 2.616-2.023L110.263.971c.297-.701.513-.971.917-.971ZM79.552 6.069c-1.052 0-1.727.161-1.727.836v8.9c0 .755.19 1.214 2.239 1.214 2.967 0 4.64-1.106 4.64-4.882 0-2.805-.621-6.068-5.152-6.068Zm31.008-3.156h-.054l-2.697 6.85c-.108.27.08.351.674.351h4.693l-2.616-7.201Z"/></svg>
